X:1
T:Title
%%score { ( 1 3 ) | ( 2 4 ) }
L:1/8
M:4/4
K:G
V:1 treble nm="Grand Piano"
V:3 treble 
V:2 treble 
V:4 treble 
V:1
 z4 z2[Q:1/4=100] D>G | B2 B2 B>A G>A | B2 d2 d2 c>B | A4 z4 | G6 z2 | B2 B2 B>A G>A | %6
 B2 d2 d2 c>B | A6 z2 |[M:9/8] [G,G]2- [G,EG]- [G,-EG-]/[G,-EG-]/ [G,DG]2- [G,DG][G,DG]>[G,DF] | %9
[M:4/4] [G,CE]2 [Ec]2 [Ec]2 [CE]>[CE] | [B,D]2 [DB]2 [DB]2 B>c | B2 A2 A2 [FA]>[FB] | %12
 A2 G2 G2 [DG]>[DF] | [CE]2 [Ec]2 [Ec]2 E>E | D2 B2 B2 B>B | A6 z2 |[M:7/8] d-d-d- d- d3 | %17
[M:1/4][K:bass] (3D,F,A, |[M:4/4][K:treble] z2 F>F F2[K:bass] (3D,G,A, | %19
[M:3/4] z2[K:treble] G>G G2 |[M:1/4] B>c |[M:4/4] B2 A2 A2 [FA]>[FB] |[M:3/4] A2 G2 G2 | %23
[M:1/4][K:bass] (3D,F,A, |[M:4/4][K:treble] z2 F>F F2[K:bass] (3D,G,A, | %25
[M:3/4] z2[K:treble] G>G G2 |[M:1/4] d>d |[M:4/4] d6 z2 |[M:7/8] G-G-G- G- G3 |] %29
V:2
 z4 z2 [G,B,]>[G,B,D] | [G,DG]2 [G,DG]2 [G,DG]>[G,CD] [G,B,D]>[G,CD] | %2
 [G,DG]2 [G,B,G]2 [G,B,G]2 E>D | C6[K:bass] z2 | B,6 z2[K:treble] | %5
 [G,DG]2 [G,DG]2 [G,DG]>[G,CD] [G,B,D]>[G,CD] | [G,DG]2 [G,B,G]2 [G,B,G]2 E>D | C6[K:bass] z2 | %8
[M:9/8] z2 C- C/C/ B,2- B,B,,>B,, |[M:4/4] C,2 [C,G,]2 [C,G,]2 [C,G,]>[C,G,] | %10
 [G,,G,]2 [G,,G,]2 [G,,G,]2 [G,D]>[G,E] | [D,G,D]2 [D,F,D]2 [D,F,D]2 [D,C]>[D,D] | %12
 [G,CD]2 [G,B,D]2 [G,B,D]2 [B,,G,]>[B,,G,] | [C,G,]2 [C,G,]2 [C,G,]2 [C,G,C]>[C,G,C] | %14
 [G,B,]2[K:treble] [G,D]2 [G,D]2 G>G | F6 z2 |[M:7/8] F-F-F- F- F3 |[M:1/4] z2 | %18
[M:4/4] z2 D>D D2 z2 |[M:3/4] z2 D>D D2 |[M:1/4] [G,D]>[G,E] | %21
[M:4/4][K:bass] [D,G,D]2 [D,F,D]2 [D,F,D]2 [D,C]>[D,D] | %22
[M:3/4][K:treble] [G,CD]2 [G,B,D]2 [G,B,D]2 |[M:1/4] z2 |[M:4/4] z2 D>D D2 z2 |[M:3/4] z2 D>D D2 | %26
[M:1/4] B>B |[M:4/4] B2[K:bass] [D,B,]>[D,B,] [D,A,]2 (3EDC | %28
[M:7/8] B,2 [G,,G,]>[G,,G,] [G,,G,]3 |] %29
V:3
 x8 | x8 | x8 | z2 F>F F2 B>A | z2 D>D D2 D>G | x8 | x8 | z2 F>F F2 [DFB]>[CFA] | %8
[M:9/8] .[B,D]3 z3 z3 |[M:4/4] x8 | x8 | x8 | x8 | x8 | x8 | z2 D>D D2 (3^cBc | %16
[M:7/8] z2 A,>A, A,3 |[M:1/4][K:bass] x2 |[M:4/4][K:treble] C6[K:bass] z2 |[M:3/4] B,6[K:treble] | %20
[M:1/4] x2 |[M:4/4] x8 |[M:3/4] x6 |[M:1/4][K:bass] x2 |[M:4/4][K:treble] C6[K:bass] z2 | %25
[M:3/4] B,6[K:treble] |[M:1/4] x2 |[M:4/4] z2 G>G F2 (3cBA |[M:7/8] z2 [CE]>[CE] [B,D]3 |] %29
V:4
 x8 | x8 | x8 | z2[K:bass] D,>D, D,2 D>C | z2 G,>G, G,2 [G,B,]>[K:treble][G,B,D] | x8 | x8 | %7
 z2[K:bass] D,>D, D,2 D,>D, |[M:9/8] G,,6- G,, z z |[M:4/4] x8 | x8 | x8 | x8 | x8 | %14
 x2[K:treble] x6 | z2 A,>A, A,2 (3:2:2G2 G |[M:7/8] z2 D,>D, D,3 |[M:1/4] x2 |[M:4/4] x8 | %19
[M:3/4] x6 |[M:1/4] x2 |[M:4/4][K:bass] x8 |[M:3/4][K:treble] x6 |[M:1/4] x2 |[M:4/4] x8 | %25
[M:3/4] x6 |[M:1/4] x2 |[M:4/4] x2[K:bass] x6 |[M:7/8] x7 |] %29

